build/redact/AlignRightOutline.svg

<svg xmlns="http://www.w3.org/2000/svg" fill="none" viewBox="0 0 24 24" focusable="false"><path d="M0 0H24V24H0z"/><path fill="#74767B" fill-rule="evenodd" d="M19.35 5.5C19.709 5.5 20 5.79001 20 6.14776C20 6.50551 19.709 6.79553 19.35 6.79553L4.65 6.79553C4.29102 6.79553 4 6.50551 4 6.14776C4 5.79001 4.29101 5.5 4.65 5.5L19.35 5.5ZM19.35 13.303C19.709 13.303 20 13.593 20 13.9508C20 14.3085 19.709 14.5986 19.35 14.5986L4.65 14.5986C4.29102 14.5986 4 14.3085 4 13.9508C4 13.593 4.29101 13.303 4.65 13.303L19.35 13.303ZM20 10.0492C20 9.69146 19.709 9.40145 19.35 9.40145L11.6422 9.40145C11.2832 9.40145 10.9922 9.69146 10.9922 10.0492C10.9922 10.407 11.2832 10.697 11.6422 10.697L19.35 10.697C19.709 10.697 20 10.407 20 10.0492ZM19.35 17.2045C19.709 17.2045 20 17.4945 20 17.8522C20 18.21 19.709 18.5 19.35 18.5L11.6422 18.5C11.2832 18.5 10.9922 18.21 10.9922 17.8522C10.9922 17.4945 11.2832 17.2045 11.6422 17.2045L19.35 17.2045Z"/></svg>

<svg xmlns="http://www.w3.org/2000/svg" fill="none" viewBox="0 0 24 24" focusable="false"><path fill="#74767B" fill-rule="evenodd" d="M19.35 5.5c.35 0 .65.29.65.64 0 .36-.3.65-.65.65H4.64a.644.644 0 0 1 0-1.29zm0 7.8c.35 0 .65.29.65.65 0 .35-.3.64-.65.64H4.64a.644.644 0 0 1 0-1.29zm.65-3.26c0-.35-.3-.64-.65-.64h-7.71c-.36 0-.65.29-.65.64 0 .36.29.65.65.65h7.71c.35 0 .65-.29.65-.65m-.65 7.16c.35 0 .65.29.65.65 0 .35-.3.65-.65.65h-7.71c-.36 0-.65-.3-.65-.65 0-.36.29-.65.65-.65z"/></svg>
